icons/ChevronUp.svg

<svg width="24" height="24" viewBox="0 0 24 24" fill="none" xmlns="http://www.w3.org/2000/svg">
<path fill-rule="evenodd" clip-rule="evenodd" d="M11.4697,9.46967c0.2929,-0.29289 0.7677,-0.29289 1.0606,0l4,4.00003c0.2929,0.2929 0.2929,0.7677 0,1.0606c-0.2929,0.2929 -0.7677,0.2929 -1.0606,0l-3.4697,-3.4696l-3.46967,3.4696c-0.29289,0.2929 -0.76777,0.2929 -1.06066,0c-0.29289,-0.2929 -0.29289,-0.7677 0,-1.0606z" fill="#002B51"/>
</svg>

<svg width="24" height="24" viewBox="0 0 24 24" fill="none" xmlns="http://www.w3.org/2000/svg">
<path fill-rule="evenodd" clip-rule="evenodd" d="M11.4697 9.46967C11.7626 9.17678 12.2374 9.17678 12.5303 9.46967L16.5303 13.4697C16.8232 13.7626 16.8232 14.2374 16.5303 14.5303C16.2374 14.8232 15.7626 14.8232 15.4697 14.5303L12 11.0607L8.53033 14.5303C8.23744 14.8232 7.76256 14.8232 7.46967 14.5303C7.17678 14.2374 7.17678 13.7626 7.46967 13.4697L11.4697 9.46967Z" fill="#002B51"/>
</svg>
